packages/astro-components-stencil/src/icons/360.svg

<svg xmlns="http://www.w3.org/2000/svg" viewBox="0 0 24 24"><g xmlns="http://www.w3.org/2000/svg" id="360" fill-rule="nonzero">
            <path d="M12 7C6.48 7 2 9.24 2 12c0 2.24 2.94 4.13 7 4.77v2.02c0 .45.54.67.85.35l2.79-2.79c.2-.2.2-.51 0-.71l-2.79-2.79a.5.5 0 00-.85.36v1.52c-3.15-.56-5-1.9-5-2.73 0-1.06 3.04-3 8-3s8 1.94 8 3c0 .66-1.2 1.68-3.32 2.34-.41.13-.68.51-.68.94 0 .67.65 1.16 1.28.96C20.11 15.36 22 13.79 22 12c0-2.76-4.48-5-10-5z"/>
        </g></svg>

<svg width="24" height="24" viewBox="0 0 24 24" fill="none" xmlns="http://www.w3.org/2000/svg">
<path d="M12 7C6.48 7 2 9.24 2 12C2 14.24 4.94 16.13 9 16.77V18.79C9 19.24 9.54 19.46 9.85 19.14L12.64 16.35C12.84 16.15 12.84 15.84 12.64 15.64L9.85 12.85C9.54 12.54 9 12.76 9 13.21V14.73C5.85 14.17 4 12.83 4 12C4 10.94 7.04 9 12 9C16.96 9 20 10.94 20 12C20 12.66 18.8 13.68 16.68 14.34C16.27 14.47 16 14.85 16 15.28C16 15.95 16.65 16.44 17.28 16.24C20.11 15.36 22 13.79 22 12C22 9.24 17.52 7 12 7Z" fill="black"/>
</svg>
